svg/u1f938_1f3fe_200d_2642.svg

<svg viewBox="0 0 128 128" xmlns="http://www.w3.org/2000/svg">
  <g id="arm_1_">
    <linearGradient id="SVGID_1_" gradientTransform="matrix(1 0 0 -1 0 130)" gradientUnits="userSpaceOnUse" x1="65.6015" x2="65.6015" y1="34.3428" y2="8.107">
      <stop offset="0" stop-color="#8D5738"/>
      <stop offset="0.5" stop-color="#A56C43"/>
    </linearGradient>
    <path d="M74.61,91.68h-7.43l0.83,27.79l-9.03,0.96c-1.44,0.34-2.39,0.86-2.39,1.72 s1.16,1.53,2.39,1.53H70.9c1.57,0,2.83-1.35,2.83-2.93v-0.07L74.61,91.68z" fill="url(#SVGID_1_)"/>
  </g>
  <g id="arm">
    <linearGradient id="SVGID_2_" gradientTransform="matrix(1 0 0 -1 0 130)" gradientUnits="userSpaceOnUse" x1="92.6211" x2="120.8071" y1="51.0554" y2="39.195">
      <stop offset="0" stop-color="#8D5738"/>
      <stop offset="0.5" stop-color="#A56C43"/>
    </linearGradient>
    <path d="M122.35,87.78c-0.39-0.19-2.64-1.1-3.29-1.35c-0.24-0.09-0.18-0.46,0.12-0.38l1.99,0.45 c0.49,0.11,0.9,0.05,1.08-0.37c0.23-0.53-0.07-0.99-0.62-1.15l-3.25-1.07c0,0-2.07-0.72-2.93-1.01c-0.47-0.16-1.25-0.25-2.06,0.16 l-9.88-5.1c-0.28-0.15-0.57-0.28-0.89-0.35l-16.77-4.03c-2.01-0.43-4.06,0.87-4.48,2.9s0.82,4.03,2.78,4.45l0,0v0l16.75,3.11 l9.93,3.89c0.1,1.5,1.15,2.17,1.54,2.7c0.54,0.71,1.38,2.29,1.29,2.96c-0.06,0.43,0.65,0.76,0.94,0.67 c0.35-0.11,0.62-0.57,0.6-1.24c-0.01-0.38-0.09-1.31-0.43-1.74c-0.14-0.18,0.01-0.41,0.18-0.36c0.01,0,0.01,0,0.02,0 c1,0.59,4.57,2.9,4.57,2.9c0.49,0.3,1.07,0.22,1.3-0.32c0.18-0.42-0.06-0.87-0.47-1.11c0,0-2.19-1.62-2.86-2.15 c-0.14-0.11-0.07-0.39,0.18-0.28s3.81,1.81,3.81,1.81c0.43,0.2,0.86,0.19,1.11-0.2c0.31-0.48,0.03-1.02-0.49-1.26l-3.96-1.98 c-0.19-0.11-0.13-0.47,0.14-0.36c0,0,2.98,1.1,3.41,1.26c0.43,0.17,1.01,0.17,1.22-0.38C123.16,88.32,122.82,88,122.35,87.78z" fill="url(#SVGID_2_)"/>
  </g>
  <g id="shirt">
    <g id="shirt_x5F_fill">
      <linearGradient id="SVGID_3_" gradientTransform="matrix(1 0 0 -1 -10.5498 127.8489)" gradientUnits="userSpaceOnUse" x1="90.4935" x2="77.9194" y1="42.9758" y2="61.0298">
        <stop offset="0" stop-color="#00BFA5"/>
        <stop offset="0.4701" stop-color="#00B29A"/>
        <stop offset="1" stop-color="#009E89"/>
      </linearGradient>
      <path d="M85.63,72.74c-0.5-0.14-1.07-0.47-1.57-1.19l-7.44-10.9l-18.5,12.4l7.67,11.24 c0.58,0.8,0.54,2.01,0.56,2.93l0.21,8.38h8.55l0.12-8.22c0,0,1.47-0.96,3.69-2.77s4.33-3.29,4.33-3.29l8.67,1.83l1.76-8.47 L85.63,72.74z" fill="url(#SVGID_3_)"/>
    </g>
  </g>
  <linearGradient id="leg_2_" gradientTransform="matrix(1 0 0 -1 0 130)" gradientUnits="userSpaceOnUse" x1="70.4258" x2="78.1002" y1="85.9857" y2="123.2415">
    <stop offset="0" stop-color="#8D5738"/>
    <stop offset="0.5" stop-color="#A56C43"/>
  </linearGradient>
  <path id="leg_1_" d="M85.51,6.34c0.02-0.97-0.7-1.05-1.95-1.16l-9.64-0.85 c-1.62-0.14-3.06,1.08-3.2,2.74l-0.39,3.7l-0.03,0l-2.86,22.22l-6.74,22.7l11.69,3.07l5.04-23.38l1.5-22.35l0.95-0.32 c0.51,0.05,2.05,0.49,2.42-0.24c0.29-0.58-0.12-0.88-0.28-0.93c0.17,0.05,0.83,0.17,1.05-0.36c0.28-0.69-0.44-0.97-0.44-0.97 s0.94,0.23,1.22-0.43c0.31-0.72-0.61-1.02-0.61-1.02s1.15,0.26,1.34-0.44c0.16-0.57-0.17-0.84-0.48-0.96 C84.8,7.44,85.49,7.17,85.51,6.34z" fill="url(#leg_2_)"/>
  <linearGradient id="leg_3_" gradientTransform="matrix(1 0 0 -1 0 130)" gradientUnits="userSpaceOnUse" x1="45.6998" x2="8.7231" y1="70.8988" y2="83.1779">
    <stop offset="0" stop-color="#8D5738"/>
    <stop offset="0.5" stop-color="#A56C43"/>
  </linearGradient>
  <path id="leg" d="M36.66,50.48c0,0-19.27-7.12-21.14-8.22c-1.87-1.1-2.98-1.74-2.98-1.74 c-1.5-0.67-2.78,0.02-3.45,1.53l-3.69,8.99c-0.51,1.17-0.67,1.85,0.18,2.3c0.72,0.39,1.29,0.22,1.56-0.46 c-0.05,0.34,0.11,0.44,0.68,0.58c0.69,0.17,1.04-0.85,1.04-0.85s-0.19,0.83,0.58,0.9c0.71,0.06,0.98-0.97,0.98-0.97 s-0.16,0.84,0.58,0.92c0.56,0.06,0.79-0.81,0.83-1c-0.03,0.17-0.12,0.84,0.52,0.85c0.81,0.02,0.98-1.67,1.19-2.15l0.36-0.83 l20.29,9.93l0.02-0.05c0.16,0.07,0.3,0.15,0.47,0.2l0,0l0,0.01l22.31,7.88l3.47-11.69C60.44,56.61,36.69,50.49,36.66,50.48z" fill="url(#leg_3_)"/>
  <path id="neck" d="M76.54,81.63L76.54,81.63c1.24-1.07,3.11-0.92,4.16,0.34l1.76,2.1l-4.49,3.89l-1.76-2.1 C75.15,84.6,75.3,82.7,76.54,81.63z" fill="#7A4C32"/>
  <path id="ears" d="M81.36,99.47l1.63-1.27l8.84-6.86l1.63-1.27c1.31-1.01,1.51-3,0.45-4.41 s-2.99-1.74-4.3-0.72l-1.63,1.27l-8.84,6.86l-1.63,1.27c-1.31,1.01-1.51,3-0.45,4.41S80.05,100.49,81.36,99.47z" fill="#7A4C32"/>
  <g id="pants_3_">
    <g id="pants_x5F_fill">
      <polygon fill="#7C7C7C" points="77.34,61.66 74,56.74 76.44,46.08 63.18,42.6 59.63,55.17 48.16,51.93 44.15,65.19 55.38,69 58.8,74.06 "/>
    </g>
  </g>
  <path id="head" d="M79.75,84.9L79.75,84.9L79.75,84.9c-3.82,2.97-5.16,8.57-0.47,14.6 c3.76,4.84,8.99,5.38,12.32,4.28c0.79-0.26,1.48-0.62,2.01-1.03c0.53-0.41,1.04-0.99,1.49-1.68c1.9-2.95,2.68-8.15-1.09-13 C89.32,82.02,83.57,81.93,79.75,84.9z" fill="#A56C43"/>
  <path id="mouth_1_" d="M81.37,90.81c0.38-0.96,2.67-2.74,3.69-2.87c0.59-0.07,0.71-0.76,0.26-0.99 c-0.44-0.23-2.34-0.09-3.42,0.75s-1.67,2.63-1.56,3.12C80.47,91.32,81.16,91.36,81.37,90.81z" fill="#473530"/>
  <path id="nose_1_" d="M83.77,91.83c0.03-0.01,0.06-0.02,0.08-0.04l1.55-1.21c0.02-0.02,0.04-0.04,0.06-0.07 c0.1-0.17,0.06-0.37-0.13-0.48c-0.19-0.1-0.83-0.3-1.46,0.18c-0.62,0.48-0.59,1.16-0.54,1.37C83.39,91.8,83.59,91.89,83.77,91.83z" fill="#875334"/>
  <g id="eyes">
    <ellipse cx="89.82" cy="90.41" fill="#42312C" rx="1.37" ry="1.42" transform="matrix(0.7897 -0.6135 0.6135 0.7897 -36.5749 74.1161)"/>
    <ellipse cx="82.59" cy="96.02" fill="#42312C" rx="1.37" ry="1.42" transform="matrix(0.7897 -0.6135 0.6135 0.7897 -41.538 70.8641)"/>
  </g>
  <g id="eyebrows">
    <path d="M89.77,93.67c0.42,0.11,1.2,0.14,2.13-0.58c0.93-0.72,1.09-1.49,1.09-1.92 c0-0.19-0.13-0.31-0.26-0.35c-0.12-0.03-0.35,0.03-0.49,0.24c-0.14,0.21-0.36,0.7-0.99,1.19c-0.63,0.48-1.15,0.58-1.39,0.66 c-0.24,0.08-0.36,0.29-0.36,0.41C89.5,93.47,89.59,93.62,89.77,93.67z" fill="#42312C"/>
    <path d="M82.55,99.29c0.42,0.11,1.2,0.14,2.13-0.58s1.09-1.49,1.09-1.92c0-0.19-0.13-0.31-0.26-0.35 c-0.12-0.03-0.35,0.03-0.49,0.24c-0.14,0.21-0.36,0.7-0.99,1.19c-0.63,0.48-1.15,0.58-1.39,0.66c-0.24,0.08-0.36,0.29-0.36,0.41 C82.28,99.08,82.36,99.24,82.55,99.29z" fill="#42312C"/>
  </g>
  <g id="hairGroup">
    <path id="hair_7_" d="M95.38,105.07L95.38,105.07C95.38,105.06,95.38,105.06,95.38,105.07 C95.38,105.06,95.39,105.06,95.38,105.07L95.38,105.07c9.95-7.77-0.91-17.59-0.91-17.59s-1.36-0.83-1.96-1.19 c-0.09-0.05-0.19,0.04-0.15,0.13c0.52,1.12,2.37,5.09,2.78,6.42c0.24,0.78-0.12,1.62-0.84,2c-1.11,0.58-2.84,1.56-4.56,2.89 c-0.01,0-0.01,0.01-0.02,0.01s-0.01,0.01-0.02,0.01c-1.72,1.33-3.11,2.75-3.95,3.68c-0.55,0.61-1.45,0.74-2.14,0.31 c-1.18-0.73-4.53-3.5-5.5-4.3c-0.08-0.07-0.19,0.01-0.17,0.11l0.65,2.19C78.59,99.74,85.36,112.72,95.38,105.07z" fill="#3C2C23"/>
    <radialGradient id="hairHighlights_1_" cx="7012.4873" cy="-2262.866" gradientTransform="matrix(-0.7913 0.6114 0.6898 0.8928 7198.0718 -2171.7441)" gradientUnits="userSpaceOnUse" r="10.5665">
      <stop offset="0.7945" stop-color="#554138" stop-opacity="0"/>
      <stop offset="1" stop-color="#554138"/>
    </radialGradient>
    <path id="hairHighlights" d="M78.59,99.74c0,0,6.76,12.98,16.79,5.32l0,0c0,0,0,0,0,0l0,0 c0,0,0,0,0,0l0,0c0.15-0.12,0.3-0.24,0.45-0.36c0.29-0.24,0.56-0.49,0.81-0.73c0,0,0,0,0.01-0.01c0.02-0.02,0.03-0.04,0.05-0.05 c7.58-7.55-2.23-16.43-2.23-16.43l-1.96-1.18c-0.09-0.05-0.19,0.04-0.15,0.13c0.53,1.13,2.36,5.09,2.77,6.41 c0.24,0.78-0.12,1.62-0.84,2c-1.11,0.58-2.84,1.56-4.56,2.89c-0.01,0-0.01,0.01-0.02,0.01s-0.01,0.01-0.02,0.01 c-1.72,1.33-3.11,2.75-3.95,3.68c-0.55,0.61-1.45,0.74-2.14,0.31c-1.18-0.73-4.57-3.52-5.51-4.31c-0.08-0.06-0.19,0.01-0.16,0.11 C78.13,98.22,78.59,99.74,78.59,99.74z" fill="url(#hairHighlights_1_)"/>
  </g>
</svg>

<svg viewBox="0 0 128 128" xmlns="http://www.w3.org/2000/svg">
  <defs>
    <linearGradient id="leg_2_" gradientTransform="matrix(1 0 0 -1 0 0)" gradientUnits="userSpaceOnUse" x1="70.4258" x2="78.1002" y1="-44.0143" y2="-6.7585">
      <stop offset="0" stop-color="#8D5738"/>
      <stop offset="0.5" stop-color="#A56C43"/>
    </linearGradient>
    <linearGradient id="leg_3_" gradientTransform="matrix(1 0 0 -1 0 0)" gradientUnits="userSpaceOnUse" x1="45.6998" x2="8.7231" y1="-59.1012" y2="-46.8221">
      <stop offset="0" stop-color="#8D5738"/>
      <stop offset="0.5" stop-color="#A56C43"/>
    </linearGradient>
    <linearGradient id="SVGID_1_" gradientTransform="matrix(1 0 0 -1 0 0)" gradientUnits="userSpaceOnUse" x1="65.6015" x2="65.6015" y1="-95.6572" y2="-121.893">
      <stop offset="0" stop-color="#8D5738"/>
      <stop offset="0.5" stop-color="#A56C43"/>
    </linearGradient>
    <linearGradient id="SVGID_2_" gradientTransform="matrix(1 0 0 -1 0 0)" gradientUnits="userSpaceOnUse" x1="92.6211" x2="120.8071" y1="-78.9446" y2="-90.805">
      <stop offset="0" stop-color="#8D5738"/>
      <stop offset="0.5" stop-color="#A56C43"/>
    </linearGradient>
    <radialGradient id="hairHighlights_1_" cx="-11.438131" cy="114.692142" gradientTransform="matrix(-0.7913 0.6114 0.6898 0.8928 0 0)" gradientUnits="userSpaceOnUse" r="10.5665">
      <stop offset="0.7945" stop-color="#554138" stop-opacity="0"/>
      <stop offset="1" stop-color="#554138"/>
    </radialGradient>
    <linearGradient id="SVGID_3_" gradientTransform="matrix(1 0 0 -1 0 0)" gradientUnits="userSpaceOnUse" x1="79.9437" x2="67.3696" y1="-84.8731" y2="-66.8191">
      <stop offset="0" stop-color="#00BFA5"/>
      <stop offset="0.4701" stop-color="#00B29A"/>
      <stop offset="1" stop-color="#009E89"/>
    </linearGradient>
  </defs>
  <path d="M74.61,91.68 L67.18,91.68 L68.01,119.47 L58.98,120.43 C57.54,120.77 56.59,121.29 56.59,122.15 C56.59,123.01 57.75,123.68 58.98,123.68 L70.9,123.68 C72.47,123.68 73.73,122.33 73.73,120.75 L73.73,120.68 L74.61,91.68 Z" fill="url(#SVGID_1_)"/>
  <path d="M122.35,87.78 C121.96,87.59 119.71,86.68 119.06,86.43 C118.82,86.34 118.88,85.97 119.18,86.05 L121.17,86.5 C121.66,86.61 122.07,86.55 122.25,86.13 C122.48,85.6 122.18,85.14 121.63,84.98 L118.38,83.91 C118.38,83.91 116.31,83.19 115.45,82.9 C114.98,82.74 114.2,82.65 113.39,83.06 L103.51,77.96 C103.23,77.81 102.94,77.68 102.62,77.61 L85.85,73.58 C83.84,73.15 81.79,74.45 81.37,76.48 C80.95,78.51 82.19,80.51 84.15,80.93 L84.15,80.93 L84.15,80.93 L100.9,84.04 L110.83,87.93 C110.93,89.43 111.98,90.1 112.37,90.63 C112.91,91.34 113.75,92.92 113.66,93.59 C113.6,94.02 114.31,94.35 114.6,94.26 C114.95,94.15 115.22,93.69 115.2,93.02 C115.19,92.64 115.11,91.71 114.77,91.28 C114.63,91.1 114.78,90.87 114.95,90.92 C114.96,90.92 114.96,90.92 114.97,90.92 C115.97,91.51 119.54,93.82 119.54,93.82 C120.03,94.12 120.61,94.04 120.84,93.5 C121.02,93.08 120.78,92.63 120.37,92.39 C120.37,92.39 118.18,90.77 117.51,90.24 C117.37,90.13 117.44,89.85 117.69,89.96 C117.94,90.07 121.5,91.77 121.5,91.77 C121.93,91.97 122.36,91.96 122.61,91.57 C122.92,91.09 122.64,90.55 122.12,90.31 L118.16,88.33 C117.97,88.22 118.03,87.86 118.3,87.97 C118.3,87.97 121.28,89.07 121.71,89.23 C122.14,89.4 122.72,89.4 122.93,88.85 C123.16,88.32 122.82,88 122.35,87.78 Z" fill="url(#SVGID_2_)"/>
  <path d="M85.63,72.74 C85.13,72.6 84.56,72.27 84.06,71.55 L76.62,60.65 L58.12,73.05 L65.79,84.29 C66.37,85.09 66.33,86.3 66.35,87.22 L66.56,95.6 L75.11,95.6 L75.23,87.38 C75.23,87.38 76.7,86.42 78.92,84.61 C81.14,82.8 83.25,81.32 83.25,81.32 L91.92,83.15 L93.68,74.68 L85.63,72.74 Z" fill="url(#SVGID_3_)"/>
  <path id="leg_1_" d="M85.51,6.34 C85.53,5.37 84.81,5.29 83.56,5.18 L73.92,4.33 C72.3,4.19 70.86,5.41 70.72,7.07 L70.33,10.77 L70.3,10.77 L67.44,32.99 L60.7,55.69 L72.39,58.76 L77.43,35.38 L78.93,13.03 L79.88,12.71 C80.39,12.76 81.93,13.2 82.3,12.47 C82.59,11.89 82.18,11.59 82.02,11.54 C82.19,11.59 82.85,11.71 83.07,11.18 C83.35,10.49 82.63,10.21 82.63,10.21 C82.63,10.21 83.57,10.44 83.85,9.78 C84.16,9.06 83.24,8.76 83.24,8.76 C83.24,8.76 84.39,9.02 84.58,8.32 C84.74,7.75 84.41,7.48 84.1,7.36 C84.8,7.44 85.49,7.17 85.51,6.34 Z" fill="url(#leg_2_)"/>
  <path id="leg" d="M36.66,50.48 C36.66,50.48 17.39,43.36 15.52,42.26 C13.65,41.16 12.54,40.52 12.54,40.52 C11.04,39.85 9.76,40.54 9.09,42.05 L5.4,51.04 C4.89,52.21 4.73,52.89 5.58,53.34 C6.3,53.73 6.87,53.56 7.14,52.88 C7.09,53.22 7.25,53.32 7.82,53.46 C8.51,53.63 8.86,52.61 8.86,52.61 C8.86,52.61 8.67,53.44 9.44,53.51 C10.15,53.57 10.42,52.54 10.42,52.54 C10.42,52.54 10.26,53.38 11,53.46 C11.56,53.52 11.79,52.65 11.83,52.46 C11.8,52.63 11.71,53.3 12.35,53.31 C13.16,53.33 13.33,51.64 13.54,51.16 L13.9,50.33 L34.19,60.26 L34.21,60.21 C34.37,60.28 34.51,60.36 34.68,60.41 L34.68,60.41 L34.68,60.42 L56.99,68.3 L60.46,56.61 C60.44,56.61 36.69,50.49 36.66,50.48 Z" fill="url(#leg_3_)"/>
  <path id="neck" d="M76.54,81.63 L76.54,81.63 C77.78,80.56 79.65,80.71 80.7,81.97 L82.46,84.07 L77.97,87.96 L76.21,85.86 C75.15,84.6 75.3,82.7 76.54,81.63 Z" fill="#7A4C32"/>
  <path id="ears" d="M81.36,99.47 L82.99,98.2 L91.83,91.34 L93.46,90.07 C94.77,89.06 94.97,87.07 93.91,85.66 C92.85,84.25 90.92,83.92 89.61,84.94 L87.98,86.21 L79.14,93.07 L77.51,94.34 C76.2,95.35 76,97.34 77.06,98.75 C78.12,100.16 80.05,100.49 81.36,99.47 Z" fill="#7A4C32"/>
  <path d="M77.34,61.66 L74,56.74 L76.44,46.08 L63.18,42.6 L59.63,55.17 L48.16,51.93 L44.15,65.19 L55.38,69 L58.8,74.06 Z" fill="#7C7C7C"/>
  <path id="head" d="M79.75,84.9 L79.75,84.9 L79.75,84.9 C75.93,87.87 74.59,93.47 79.28,99.5 C83.04,104.34 88.27,104.88 91.6,103.78 C92.39,103.52 93.08,103.16 93.61,102.75 C94.14,102.34 94.65,101.76 95.1,101.07 C97,98.12 97.78,92.92 94.01,88.07 C89.32,82.02 83.57,81.93 79.75,84.9 Z" fill="#A56C43"/>
  <path id="mouth_1_" d="M81.37,90.81 C81.75,89.85 84.04,88.07 85.06,87.94 C85.65,87.87 85.77,87.18 85.32,86.95 C84.88,86.72 82.98,86.86 81.9,87.7 C80.82,88.54 80.23,90.33 80.34,90.82 C80.47,91.32 81.16,91.36 81.37,90.81 Z" fill="#473530"/>
  <path id="nose_1_" d="M83.77,91.83 C83.8,91.82 83.83,91.81 83.85,91.79 L85.4,90.58 C85.42,90.56 85.44,90.54 85.46,90.51 C85.56,90.34 85.52,90.14 85.33,90.03 C85.14,89.93 84.5,89.73 83.87,90.21 C83.25,90.69 83.28,91.37 83.33,91.58 C83.39,91.8 83.59,91.89 83.77,91.83 Z" fill="#875334"/>
  <path d="M90.904,89.568 C91.386,90.187 91.291,91.065 90.694,91.53 C90.096,91.994 89.222,91.868 88.741,91.249 C88.259,90.629 88.354,89.751 88.951,89.287 C89.549,88.823 90.423,88.948 90.904,89.568 Z" fill="#42312C"/>
  <path d="M83.673,95.182 C84.155,95.801 84.06,96.679 83.463,97.143 C82.865,97.608 81.991,97.482 81.51,96.863 C81.029,96.243 81.123,95.365 81.72,94.901 C82.318,94.437 83.192,94.562 83.673,95.182 Z" fill="#42312C"/>
  <path d="M89.77,93.67 C90.19,93.78 90.97,93.81 91.9,93.09 C92.83,92.37 92.99,91.6 92.99,91.17 C92.99,90.98 92.86,90.86 92.73,90.82 C92.61,90.79 92.38,90.85 92.24,91.06 C92.1,91.27 91.88,91.76 91.25,92.25 C90.62,92.73 90.1,92.83 89.86,92.91 C89.62,92.99 89.5,93.2 89.5,93.32 C89.5,93.47 89.59,93.62 89.77,93.67 Z" fill="#42312C"/>
  <path d="M82.55,99.29 C82.97,99.4 83.75,99.43 84.68,98.71 C85.61,97.99 85.77,97.22 85.77,96.79 C85.77,96.6 85.64,96.48 85.51,96.44 C85.39,96.41 85.16,96.47 85.02,96.68 C84.88,96.89 84.66,97.38 84.03,97.87 C83.4,98.35 82.88,98.45 82.64,98.53 C82.4,98.61 82.28,98.82 82.28,98.94 C82.28,99.08 82.36,99.24 82.55,99.29 Z" fill="#42312C"/>
  <path id="hair_7_" d="M95.38,105.07 L95.38,105.07 C95.38,105.06 95.38,105.06 95.38,105.07 C95.38,105.06 95.39,105.06 95.38,105.07 L95.38,105.07 C105.33,97.3 94.47,87.48 94.47,87.48 C94.47,87.48 93.11,86.65 92.51,86.29 C92.42,86.24 92.32,86.33 92.36,86.42 C92.88,87.54 94.73,91.51 95.14,92.84 C95.38,93.62 95.02,94.46 94.3,94.84 C93.19,95.42 91.46,96.4 89.74,97.73 C89.73,97.73 89.73,97.74 89.72,97.74 C89.71,97.74 89.71,97.75 89.7,97.75 C87.98,99.08 86.59,100.5 85.75,101.43 C85.2,102.04 84.3,102.17 83.61,101.74 C82.43,101.01 79.08,98.24 78.11,97.44 C78.03,97.37 77.92,97.45 77.94,97.55 L78.59,99.74 C78.59,99.74 85.36,112.72 95.38,105.07 Z" fill="#3C2C23"/>
  <path id="hairHighlights" d="M78.59,99.74 C78.59,99.74 85.35,112.72 95.38,105.06 L95.38,105.06 C95.38,105.06 95.38,105.06 95.38,105.06 L95.38,105.06 C95.38,105.06 95.38,105.06 95.38,105.06 L95.38,105.06 C95.53,104.94 95.68,104.82 95.83,104.7 C96.12,104.46 96.39,104.21 96.64,103.97 C96.64,103.97 96.64,103.97 96.65,103.96 C96.67,103.94 96.68,103.92 96.7,103.91 C104.28,96.36 94.47,87.48 94.47,87.48 L92.51,86.3 C92.42,86.25 92.32,86.34 92.36,86.43 C92.89,87.56 94.72,91.52 95.13,92.84 C95.37,93.62 95.01,94.46 94.29,94.84 C93.18,95.42 91.45,96.4 89.73,97.73 C89.72,97.73 89.72,97.74 89.71,97.74 C89.7,97.74 89.7,97.75 89.69,97.75 C87.97,99.08 86.58,100.5 85.74,101.43 C85.19,102.04 84.29,102.17 83.6,101.74 C82.42,101.01 79.03,98.22 78.09,97.43 C78.01,97.37 77.9,97.44 77.93,97.54 C78.13,98.22 78.59,99.74 78.59,99.74 Z" fill="url(#hairHighlights_1_)"/>
</svg>
